X:0020
T:Jollity.
M:6/8
L:1/8
Q:3/8=120
I: :: ::
%%Bfly 0 300 6 3 247 255 128 0 260 600 10 1 319 12 \
 0 0 3 2 1 4 1 113 142 -332 31 24 0 669 3 512 5 0 0 
Z:Jack Campin * www.campin.me.uk * 2009
K:D
ded A2G|F2A d3 |def e2d|c2B A3 |
ded A2G|F2A d3 |def e2d|a3  A3:|
fgf fgf|g2e e2f|g2f e2d|cdB A3 |
fgf fgf|gfg a2g|fed Adc|d3  D3:|
<end>
<start>
